dist/images/icons/icon-quote-open.svg

<svg width="24" height="20" viewBox="0 0 24 20" fill="none" xmlns="http://www.w3.org/2000/svg">
<path d="M5.21739 9.595C6.49275 9.71095 7.53623 10.2037 8.34782 11.0733C9.15942 11.9428 9.56522 13.0443 9.56522 14.3776C9.56522 15.8269 9.13044 17.0153 8.26087 17.9428C7.3913 18.8124 6.28986 19.2472 4.95652 19.2472C3.44928 19.2472 2.23188 18.6965 1.30435 17.595C0.434783 16.4936 0 14.7834 0 12.4646C0 8.0008 1.47826 4.14573 4.43478 0.899349C5.01449 0.31964 5.68116 0.0297852 6.43478 0.0297852C7.07246 0.0297852 7.62319 0.26167 8.08696 0.725439C8.55072 1.13123 8.78261 1.62399 8.78261 2.2037C8.78261 2.84138 8.55072 3.39211 8.08696 3.85587C6.57971 5.42109 5.62319 7.33413 5.21739 9.595ZM19.6522 9.595C20.9275 9.71095 21.971 10.2037 22.7826 11.0733C23.5942 11.9428 24 13.0443 24 14.3776C24 15.8269 23.5652 17.0153 22.6957 17.9428C21.8261 18.8124 20.7246 19.2472 19.3913 19.2472C17.8841 19.2472 16.6667 18.6965 15.7391 17.595C14.8696 16.4936 14.4348 14.7834 14.4348 12.4646C14.4348 8.0008 15.913 4.14573 18.8696 0.899349C19.4493 0.31964 20.1159 0.0297852 20.8696 0.0297852C21.5072 0.0297852 22.058 0.26167 22.5217 0.725439C22.9855 1.13123 23.2174 1.62399 23.2174 2.2037C23.2174 2.84138 22.9855 3.39211 22.5217 3.85587C21.0145 5.42109 20.058 7.33413 19.6522 9.595Z" fill="black"/>
</svg>

<svg width="24" height="20" fill="none" xmlns="http://www.w3.org/2000/svg"><path d="M5.217 9.595c1.276.116 2.32.609 3.13 1.478.812.87 1.218 1.971 1.218 3.305 0 1.449-.435 2.637-1.304 3.565-.87.87-1.971 1.304-3.304 1.304-1.508 0-2.725-.55-3.653-1.652C.434 16.494 0 14.783 0 12.465 0 8 1.478 4.145 4.435.899c.58-.58 1.246-.87 2-.87.637 0 1.188.233 1.652.696.464.406.696.899.696 1.479 0 .637-.232 1.188-.696 1.652C6.58 5.42 5.623 7.334 5.217 9.595zm14.435 0c1.275.116 2.319.609 3.13 1.478.812.87 1.218 1.971 1.218 3.305 0 1.449-.435 2.637-1.304 3.565-.87.87-1.971 1.304-3.305 1.304-1.507 0-2.724-.55-3.652-1.652-.87-1.101-1.304-2.812-1.304-5.13 0-4.464 1.478-8.32 4.435-11.566.58-.58 1.246-.87 2-.87.637 0 1.188.233 1.652.696.463.406.695.899.695 1.479 0 .637-.232 1.188-.695 1.652-1.507 1.565-2.464 3.478-2.87 5.739z" fill="#000"/></svg>
